svg/building/lighthouse_line.svg

<?xml version="1.0" encoding="UTF-8"?>
<svg width="24px" height="24px" viewBox="0 0 24 24" version="1.1" xmlns="http://www.w3.org/2000/svg" xmlns:xlink="http://www.w3.org/1999/xlink">
    <title>lighthouse_line</title>
    <g id="页面-1" stroke="none" stroke-width="1" fill="none" fill-rule="evenodd">
        <g id="Building" transform="translate(-720.000000, 0.000000)">
            <g id="lighthouse_line" transform="translate(720.000000, 0.000000)">
                 <path d="M24,0 L24,24 L0,24 L0,0 L24,0 Z M12.5934901,23.257841 L12.5819402,23.2595131 L12.5108777,23.2950439 L12.4918791,23.2987469 L12.4918791,23.2987469 L12.4767152,23.2950439 L12.4056548,23.2595131 C12.3958229,23.2563662 12.3870493,23.2590235 12.3821421,23.2649074 L12.3780323,23.275831 L12.360941,23.7031097 L12.3658947,23.7234994 L12.3769048,23.7357139 L12.4804777,23.8096931 L12.4953491,23.8136134 L12.4953491,23.8136134 L12.5071152,23.8096931 L12.6106902,23.7357139 L12.6232938,23.7196733 L12.6232938,23.7196733 L12.6266527,23.7031097 L12.609561,23.275831 C12.6075724,23.2657013 12.6010112,23.2592993 12.5934901,23.257841 L12.5934901,23.257841 Z M12.8583906,23.1452862 L12.8445485,23.1473072 L12.6598443,23.2396597 L12.6498822,23.2499052 L12.6498822,23.2499052 L12.6471943,23.2611114 L12.6650943,23.6906389 L12.6699349,23.7034178 L12.6699349,23.7034178 L12.678386,23.7104931 L12.8793402,23.8032389 C12.8914285,23.8068999 12.9022333,23.8029875 12.9078286,23.7952264 L12.9118235,23.7811639 L12.8776777,23.1665331 C12.8752882,23.1545897 12.8674102,23.1470016 12.8583906,23.1452862 L12.8583906,23.1452862 Z M12.1430473,23.1473072 C12.1332178,23.1423925 12.1221763,23.1452606 12.1156365,23.1525954 L12.1099173,23.1665331 L12.0757714,23.7811639 C12.0751323,23.7926639 12.0828099,23.8018602 12.0926481,23.8045676 L12.108256,23.8032389 L12.3092106,23.7104931 L12.3186497,23.7024347 L12.3186497,23.7024347 L12.3225043,23.6906389 L12.340401,23.2611114 L12.337245,23.2485176 L12.337245,23.2485176 L12.3277531,23.2396597 L12.1430473,23.1473072 Z" id="MingCute" fill-rule="nonzero"></path>
                <path d="M12,7.99991 C12.5523,7.99991 13,7.55219 13,6.99991 C13,6.44762 12.5523,5.99991 12,5.99991 C11.4477,5.99991 11,6.44762 11,6.99991 C11,7.55219 11.4477,7.99991 12,7.99991 Z" id="路径" fill="#09244B" fill-rule="nonzero"></path>
                <path d="M12.8321,2.35275 L15.3485,4.03038 C15.7383,4.29025 15.9843,4.71731 16.0135,5.18489 L16.254,9.03244 C16.6833,9.14483 17,9.53538 17,9.99991 C17,10.4205 16.7403,10.7805 16.3725,10.9282 L16.9395,19.9999 L19,19.9999 C19.5523,19.9999 20,20.4476 20,20.9999 C20,21.5522 19.5523,21.9999 19,21.9999 L5,21.9999 C4.44772,21.9999 4,21.5522 4,20.9999 C4,20.4476 4.44772,19.9999 5,19.9999 L7.06055,19.9999 L7.62753,10.9282 C7.25971,10.7805 7,10.4205 7,9.99991 C7,9.53538 7.31673,9.14483 7.74602,9.03244 L7.98649,5.18489 C8.01571,4.71731 8.26171,4.29025 8.65152,4.03038 L11.1679,2.35275 C11.6718,2.01685 12.3282,2.01686 12.8321,2.35275 Z M14.373,10.9999 L9.62695,10.9999 L9.06445,19.9999 L14.9355,19.9999 L14.373,10.9999 Z M4.29289,8.2928 C4.68342,7.90227 5.31658,7.90227 5.70711,8.2928 C6.06759,8.65328 6.09531923,9.22051503 5.79029769,9.6128035 L5.70711,9.70701 L4.70711,10.707 C4.31658,11.0975 3.68342,11.0975 3.29289,10.707 C2.93241,10.3465385 2.90468077,9.77929633 3.20970231,9.38700666 L3.29289,9.2928 L4.29289,8.2928 Z M18.2929,8.2928 C18.6533615,7.93231077 19.2206207,7.90458083 19.6128973,8.20961018 L19.7071,8.2928 L20.7071,9.2928 C21.0976,9.68332 21.0976,10.3165 20.7071,10.707 C20.3466385,11.0674615 19.7793793,11.0951893 19.3871027,10.7901834 L19.2929,10.707 L18.2929,9.70701 C17.9024,9.31649 17.9024,8.68332 18.2929,8.2928 Z M12,4.20176 L9.96713,5.557 L9.75195,8.99991 L14.248,8.99991 L14.0329,5.557 L12,4.20176 Z M4.70711,4.2928 L5.70711,5.2928 C6.09763,5.68332 6.09763,6.31649 5.70711,6.70701 C5.31658,7.09754 4.68342,7.09754 4.29289,6.70701 L3.29289,5.70701 C2.90237,5.31649 2.90237,4.68332 3.29289,4.2928 C3.68342,3.90227 4.31658,3.90227 4.70711,4.2928 Z M20.7071,4.2928 C21.0976,4.68332 21.0976,5.31649 20.7071,5.70701 L19.7071,6.70701 C19.3166,7.09754 18.6834,7.09754 18.2929,6.70701 C17.9024,6.31649 17.9024,5.68332 18.2929,5.2928 L19.2929,4.2928 C19.6834,3.90227 20.3166,3.90227 20.7071,4.2928 Z" id="形状" fill="#09244B"></path>
            </g>
        </g>
    </g>
</svg>

<svg xmlns="http://www.w3.org/2000/svg" width="24" height="24"><g fill="none" fill-rule="evenodd"><path d="M24 0v24H0V0h24ZM12.593 23.258l-.011.002-.071.035-.02.004-.014-.004-.071-.035c-.01-.004-.019-.001-.024.005l-.004.01-.017.428.005.02.01.013.104.074.015.004.012-.004.104-.074.012-.016.004-.017-.017-.427c-.002-.01-.009-.017-.017-.018Zm.265-.113-.013.002-.185.093-.01.01-.003.011.018.43.005.012.008.007.201.093c.012.004.023 0 .029-.008l.004-.014-.034-.614c-.003-.012-.01-.02-.02-.022Zm-.715.002a.023.023 0 0 0-.027.006l-.006.014-.034.614c0 .012.007.02.017.024l.015-.002.201-.093.01-.008.004-.011.017-.43-.003-.012-.01-.01-.184-.092Z"/><path fill="#09244B" fill-rule="nonzero" d="M12 8a1 1 0 1 0 0-2 1 1 0 0 0 0 2Z"/><path fill="#09244B" d="m12.832 2.353 2.516 1.677c.39.26.636.687.665 1.155l.241 3.847a1 1 0 0 1 .118 1.896L16.94 20H19a1 1 0 1 1 0 2H5a1 1 0 1 1 0-2h2.06l.568-9.072a1 1 0 0 1 .118-1.896l.24-3.847a1.5 1.5 0 0 1 .666-1.155l2.516-1.677a1.5 1.5 0 0 1 1.664 0ZM14.373 11H9.627l-.563 9h5.871l-.562-9ZM4.293 8.293a1 1 0 0 1 1.497 1.32l-.083.094-1 1a1 1 0 0 1-1.497-1.32l.083-.094 1-1Zm14 0a1 1 0 0 1 1.32-.083l.094.083 1 1a1 1 0 0 1-1.32 1.497l-.094-.083-1-1a1 1 0 0 1 0-1.414ZM12 4.202 9.967 5.557 9.752 9h4.496l-.215-3.443L12 4.202Zm-7.293.09 1 1a1 1 0 0 1-1.414 1.415l-1-1a1 1 0 0 1 1.414-1.414Zm16 0a1 1 0 0 1 0 1.415l-1 1a1 1 0 1 1-1.414-1.414l1-1a1 1 0 0 1 1.414 0Z"/></g></svg>
